2021/04/09/prioritizing-memory-safety-migrations/surface-03.svg

<svg width="536pt" height="46pt" viewBox="0 0 536 46" xmlns="http://www.w3.org/2000/svg"><g id="graph0" class="graph" transform="scale(1 1) rotate(0) translate(4 42)"><g id="node1" class="node"><title>attacker</title><path fill="none" stroke="var(--fg)" d="M42-36s-30 0-30 0C6-36 0-30 0-24v12C0-6 6 0 12 0H42c6 0 12-6 12-12V-24c0-6-6-12-12-12"/><text text-anchor="middle" x="27" y="-15.8" font-family="Roboto" font-size="9">attacker</text></g><g id="node2" class="node"><title>NIC</title><path fill="none" stroke="var(--fg)" d="M184-36s-44 0-44 0c-6 0-12 6-12 12v12c0 6 6 12 12 12h44c6 0 12-6 12-12V-24c0-6-6-12-12-12"/><text text-anchor="middle" x="162" y="-15.8" font-family="Roboto" font-size="9">net interface</text></g><g id="edge1" class="edge"><title>attacker->NIC</title><path fill="none" stroke="var(--fg)" d="M54.28-18c18 0 42.3.0 63.17.0"/><polygon fill="var(--fg)" stroke="var(--fg)" points="117.69,-21.5 127.69,-18 117.69,-14.5 117.69,-21.5"/><text text-anchor="middle" x="91" y="-30.8" font-family="Roboto" font-size="9">0, low, or</text><text text-anchor="middle" x="91" y="-20.8" font-family="Roboto" font-size="9">medium</text></g><g id="node3" class="node"><title>kernel</title><path fill="none" stroke="var(--fg)" d="M295-36s-45 0-45 0c-6 0-12 6-12 12v12c0 6 6 12 12 12h45c6 0 12-6 12-12V-24c0-6-6-12-12-12"/><text text-anchor="middle" x="272.5" y="-15.8" font-family="Roboto" font-size="9">device driver</text></g><g id="edge2" class="edge"><title>NIC->kernel</title><path fill="none" stroke="var(--fg)" d="M196.14-18C206.05-18 217.07-18 227.56-18"/><polygon fill="var(--fg)" stroke="var(--fg)" points="227.81,-21.5 237.81,-18 227.81,-14.5 227.81,-21.5"/><text text-anchor="middle" x="217" y="-20.8" font-family="Roboto" font-size="9">0</text></g><g id="node4" class="node"><title>TCP</title><path fill="none" stroke="var(--fg)" d="M391-36s-30 0-30 0c-6 0-12 6-12 12v12c0 6 6 12 12 12h30c6 0 12-6 12-12V-24c0-6-6-12-12-12"/><text text-anchor="middle" x="376" y="-15.8" font-family="Roboto" font-size="9">TCP</text></g><g id="edge3" class="edge"><title>kernel->TCP</title><path fill="none" stroke="var(--fg)" d="M307.02-18c10.22.0 21.5.0 31.88.0"/><polygon fill="var(--fg)" stroke="var(--fg)" points="338.91,-21.5 348.91,-18 338.91,-14.5 338.91,-21.5"/><text text-anchor="middle" x="328" y="-20.8" font-family="Roboto" font-size="9">0</text></g><g id="node5" class="node"><title>TLS</title><path fill="none" stroke="var(--fg)" d="M516-36s-30 0-30 0c-6 0-12 6-12 12v12c0 6 6 12 12 12h30c6 0 12-6 12-12V-24c0-6-6-12-12-12"/><text text-anchor="middle" x="501" y="-15.8" font-family="Roboto" font-size="9">TLS</text></g><g id="edge4" class="edge"><title>TCP->TLS</title><path fill="none" stroke="var(--fg)" d="M403.09-18c17.69.0 41.31.0 60.81.0"/><polygon fill="var(--fg)" stroke="var(--fg)" points="463.95,-21.5 473.95,-18 463.95,-14.5 463.95,-21.5"/><text text-anchor="middle" x="438.5" y="-30.8" font-family="Roboto" font-size="9">low or</text><text text-anchor="middle" x="438.5" y="-20.8" font-family="Roboto" font-size="9">medium</text></g></g></svg>

<?xml version="1.0" encoding="UTF-8" standalone="no"?>
<!DOCTYPE svg PUBLIC "-//W3C//DTD SVG 1.1//EN"
 "http://www.w3.org/Graphics/SVG/1.1/DTD/svg11.dtd">
<!-- Generated by graphviz version 2.42.4 (0)
 -->
<!-- Pages: 1 -->
<svg width="536pt" height="46pt"
 viewBox="0.00 0.00 536.00 46.00" xmlns="http://www.w3.org/2000/svg" xmlns:xlink="http://www.w3.org/1999/xlink">
<g id="graph0" class="graph" transform="scale(1 1) rotate(0) translate(4 42)">
<!-- attacker -->
<g id="node1" class="node">
<title>attacker</title>
<path fill="none" stroke="var(--fg)" d="M42,-36C42,-36 12,-36 12,-36 6,-36 0,-30 0,-24 0,-24 0,-12 0,-12 0,-6 6,0 12,0 12,0 42,0 42,0 48,0 54,-6 54,-12 54,-12 54,-24 54,-24 54,-30 48,-36 42,-36"/>
<text text-anchor="middle" x="27" y="-15.8" font-family="Roboto" font-size="9.00">attacker</text>
</g>
<!-- NIC -->
<g id="node2" class="node">
<title>NIC</title>
<path fill="none" stroke="var(--fg)" d="M184,-36C184,-36 140,-36 140,-36 134,-36 128,-30 128,-24 128,-24 128,-12 128,-12 128,-6 134,0 140,0 140,0 184,0 184,0 190,0 196,-6 196,-12 196,-12 196,-24 196,-24 196,-30 190,-36 184,-36"/>
<text text-anchor="middle" x="162" y="-15.8" font-family="Roboto" font-size="9.00">net interface</text>
</g>
<!-- attacker&#45;&gt;NIC -->
<g id="edge1" class="edge">
<title>attacker&#45;&gt;NIC</title>
<path fill="none" stroke="var(--fg)" d="M54.28,-18C72.28,-18 96.58,-18 117.45,-18"/>
<polygon fill="var(--fg)" stroke="var(--fg)" points="117.69,-21.5 127.69,-18 117.69,-14.5 117.69,-21.5"/>
<text text-anchor="middle" x="91" y="-30.8" font-family="Roboto" font-size="9.00">0, low, or</text>
<text text-anchor="middle" x="91" y="-20.8" font-family="Roboto" font-size="9.00">medium</text>
</g>
<!-- kernel -->
<g id="node3" class="node">
<title>kernel</title>
<path fill="none" stroke="var(--fg)" d="M295,-36C295,-36 250,-36 250,-36 244,-36 238,-30 238,-24 238,-24 238,-12 238,-12 238,-6 244,0 250,0 250,0 295,0 295,0 301,0 307,-6 307,-12 307,-12 307,-24 307,-24 307,-30 301,-36 295,-36"/>
<text text-anchor="middle" x="272.5" y="-15.8" font-family="Roboto" font-size="9.00">device driver</text>
</g>
<!-- NIC&#45;&gt;kernel -->
<g id="edge2" class="edge">
<title>NIC&#45;&gt;kernel</title>
<path fill="none" stroke="var(--fg)" d="M196.14,-18C206.05,-18 217.07,-18 227.56,-18"/>
<polygon fill="var(--fg)" stroke="var(--fg)" points="227.81,-21.5 237.81,-18 227.81,-14.5 227.81,-21.5"/>
<text text-anchor="middle" x="217" y="-20.8" font-family="Roboto" font-size="9.00">0</text>
</g>
<!-- TCP -->
<g id="node4" class="node">
<title>TCP</title>
<path fill="none" stroke="var(--fg)" d="M391,-36C391,-36 361,-36 361,-36 355,-36 349,-30 349,-24 349,-24 349,-12 349,-12 349,-6 355,0 361,0 361,0 391,0 391,0 397,0 403,-6 403,-12 403,-12 403,-24 403,-24 403,-30 397,-36 391,-36"/>
<text text-anchor="middle" x="376" y="-15.8" font-family="Roboto" font-size="9.00">TCP</text>
</g>
<!-- kernel&#45;&gt;TCP -->
<g id="edge3" class="edge">
<title>kernel&#45;&gt;TCP</title>
<path fill="none" stroke="var(--fg)" d="M307.02,-18C317.24,-18 328.52,-18 338.9,-18"/>
<polygon fill="var(--fg)" stroke="var(--fg)" points="338.91,-21.5 348.91,-18 338.91,-14.5 338.91,-21.5"/>
<text text-anchor="middle" x="328" y="-20.8" font-family="Roboto" font-size="9.00">0</text>
</g>
<!-- TLS -->
<g id="node5" class="node">
<title>TLS</title>
<path fill="none" stroke="var(--fg)" d="M516,-36C516,-36 486,-36 486,-36 480,-36 474,-30 474,-24 474,-24 474,-12 474,-12 474,-6 480,0 486,0 486,0 516,0 516,0 522,0 528,-6 528,-12 528,-12 528,-24 528,-24 528,-30 522,-36 516,-36"/>
<text text-anchor="middle" x="501" y="-15.8" font-family="Roboto" font-size="9.00">TLS</text>
</g>
<!-- TCP&#45;&gt;TLS -->
<g id="edge4" class="edge">
<title>TCP&#45;&gt;TLS</title>
<path fill="none" stroke="var(--fg)" d="M403.09,-18C420.78,-18 444.4,-18 463.9,-18"/>
<polygon fill="var(--fg)" stroke="var(--fg)" points="463.95,-21.5 473.95,-18 463.95,-14.5 463.95,-21.5"/>
<text text-anchor="middle" x="438.5" y="-30.8" font-family="Roboto" font-size="9.00">low or</text>
<text text-anchor="middle" x="438.5" y="-20.8" font-family="Roboto" font-size="9.00">medium</text>
</g>
</g>
</svg>
